icons/jiraalign/jiraalign-original-wordmark.svg

<?xml version="1.0" encoding="UTF-8"?>
<svg xmlns="http://www.w3.org/2000/svg" xmlns:xlink="http://www.w3.org/1999/xlink" width="128px" height="128px" viewBox="0 0 128 128" version="1.1">
<defs>
<linearGradient id="linear0" gradientUnits="userSpaceOnUse" x1="8.221" y1="20.546" x2="9.771" y2="12.639" gradientTransform="matrix(0.87671,0,0,0.87671,0,49.109)">
<stop offset="0.15" style="stop-color:rgb(0%,32.156863%,80%);stop-opacity:1;"/>
<stop offset="0.503" style="stop-color:rgb(5.490196%,39.215686%,87.058824%);stop-opacity:1;"/>
<stop offset="1" style="stop-color:rgb(14.901961%,51.764706%,100%);stop-opacity:1;"/>
</linearGradient>
<linearGradient id="linear1" gradientUnits="userSpaceOnUse" x1="11.391" y1="10.847" x2="9.84" y2="18.754" gradientTransform="matrix(0.87671,0,0,0.87671,0,49.109)">
<stop offset="0.15" style="stop-color:rgb(0%,32.156863%,80%);stop-opacity:1;"/>
<stop offset="0.503" style="stop-color:rgb(5.490196%,39.215686%,87.058824%);stop-opacity:1;"/>
<stop offset="1" style="stop-color:rgb(14.901961%,51.764706%,100%);stop-opacity:1;"/>
</linearGradient>
</defs>
<g id="surface1">
<path style=" stroke:none;fill-rule:nonzero;fill:rgb(14.509804%,21.960784%,34.509804%);fill-opacity:1;" d="M 31.464844 53.148438 L 33.949219 53.148438 L 33.949219 65.46875 C 33.949219 68.71875 32.472656 70.988281 29.042969 70.988281 C 27.753906 70.988281 26.746094 70.773438 26.054688 70.527344 L 26.054688 68.167969 C 26.808594 68.472656 27.722656 68.628906 28.632812 68.628906 C 30.742188 68.628906 31.464844 67.402344 31.464844 65.625 Z M 38.449219 52.199219 C 39.425781 52.199219 40.117188 52.78125 40.117188 53.824219 C 40.117188 54.835938 39.425781 55.449219 38.449219 55.449219 C 37.476562 55.449219 36.78125 54.867188 36.78125 53.824219 C 36.78125 52.78125 37.476562 52.199219 38.449219 52.199219 Z M 37.253906 57.378906 L 39.644531 57.378906 L 39.644531 70.867188 L 37.253906 70.867188 Z M 45.59375 70.867188 L 43.265625 70.867188 L 43.265625 57.378906 L 45.59375 57.378906 L 45.59375 59.738281 C 46.410156 58.144531 47.796875 57.011719 50.503906 57.164062 L 50.503906 59.433594 C 47.449219 59.128906 45.59375 60.015625 45.59375 62.898438 Z M 61.671875 68.445312 C 60.789062 70.222656 59.121094 71.140625 56.984375 71.140625 C 53.300781 71.140625 51.445312 68.105469 51.445312 64.121094 C 51.445312 60.320312 53.394531 57.101562 57.265625 57.101562 C 59.28125 57.101562 60.855469 57.992188 61.671875 59.738281 L 61.671875 57.378906 L 64.0625 57.378906 L 64.0625 70.867188 L 61.671875 70.867188 Z M 57.613281 68.964844 C 59.753906 68.964844 61.640625 67.648438 61.640625 64.644531 L 61.640625 63.570312 C 61.640625 60.566406 59.910156 59.246094 57.863281 59.246094 C 55.191406 59.246094 53.804688 60.964844 53.804688 64.089844 C 53.835938 67.371094 55.15625 68.964844 57.613281 68.964844 Z M 72.9375 66.882812 L 71.425781 70.867188 L 68.625 70.867188 L 75.800781 53.148438 L 78.945312 53.148438 L 86.121094 70.867188 L 83.320312 70.867188 L 81.808594 66.851562 C 80.171875 67.1875 78.757812 67.34375 77.308594 67.34375 C 75.894531 67.34375 74.476562 67.15625 72.9375 66.882812 Z M 81.054688 64.828125 L 77.371094 55.109375 L 73.691406 64.859375 C 75.046875 65.074219 76.175781 65.195312 77.277344 65.195312 C 78.441406 65.164062 79.640625 65.042969 81.054688 64.828125 Z M 91.46875 70.957031 C 89.203125 70.957031 87.757812 69.914062 87.757812 67.433594 L 87.757812 51.738281 L 90.148438 51.738281 L 90.148438 67.128906 C 90.148438 68.351562 90.964844 68.78125 92.003906 68.78125 C 92.257812 68.78125 92.414062 68.78125 92.695312 68.753906 L 92.695312 70.835938 C 92.507812 70.898438 92.097656 70.957031 91.46875 70.957031 Z M 96.21875 52.199219 C 97.195312 52.199219 97.886719 52.78125 97.886719 53.824219 C 97.886719 54.835938 97.195312 55.449219 96.21875 55.449219 C 95.246094 55.449219 94.554688 54.867188 94.554688 53.824219 C 94.554688 52.78125 95.246094 52.199219 96.21875 52.199219 Z M 94.992188 57.378906 L 97.382812 57.378906 L 97.382812 70.867188 L 94.992188 70.867188 Z M 110.316406 68.445312 C 109.4375 70.222656 107.769531 71.140625 105.628906 71.140625 C 101.980469 71.140625 100.152344 68.105469 100.152344 64.121094 C 100.152344 60.320312 102.074219 57.101562 105.910156 57.101562 C 107.925781 57.101562 109.5 57.992188 110.316406 59.738281 L 110.316406 57.378906 L 112.644531 57.378906 L 112.644531 69.640625 C 112.644531 73.59375 110.726562 76.261719 105.785156 76.261719 C 103.457031 76.261719 102.199219 75.953125 100.84375 75.523438 L 100.84375 73.257812 C 102.355469 73.746094 103.960938 74.054688 105.660156 74.054688 C 109.121094 74.054688 110.316406 72.246094 110.316406 69.730469 Z M 106.257812 68.964844 C 108.398438 68.964844 110.285156 67.648438 110.285156 64.644531 L 110.285156 63.570312 C 110.285156 60.566406 108.554688 59.246094 106.507812 59.246094 C 103.835938 59.246094 102.449219 60.964844 102.449219 64.089844 C 102.480469 67.371094 103.804688 68.964844 106.257812 68.964844 Z M 128 70.867188 L 125.609375 70.867188 L 125.609375 62.714844 C 125.609375 60.289062 124.601562 59.21875 122.335938 59.21875 C 120.132812 59.21875 118.59375 60.65625 118.59375 63.386719 L 118.59375 70.898438 L 116.203125 70.898438 L 116.203125 57.410156 L 118.59375 57.410156 L 118.59375 59.617188 C 119.472656 58.023438 121.109375 57.132812 122.964844 57.132812 C 126.144531 57.132812 127.96875 59.28125 127.96875 62.988281 L 127.96875 70.867188 Z M 128 70.867188 "/>
<path style=" stroke:none;fill-rule:nonzero;fill:url(#linear0);" d="M 0 54.183594 C 0 57.453125 2.644531 60.117188 5.882812 60.117188 L 11.328125 60.117188 L 11.328125 65.640625 L 17.210938 65.640625 L 17.210938 55.167969 C 17.210938 54.660156 16.800781 54.214844 16.300781 54.214844 Z M 0 54.183594 "/>
<path style=" stroke:none;fill-rule:nonzero;fill:url(#linear1);" d="M 17.179688 71.546875 C 17.179688 68.277344 14.535156 65.640625 11.296875 65.640625 L 5.882812 65.640625 L 5.882812 60.117188 L 0 60.117188 L 0 70.59375 C 0 71.101562 0.410156 71.546875 0.910156 71.546875 Z M 17.179688 71.546875 "/>
</g>
</svg>

<svg xmlns="http://www.w3.org/2000/svg" viewBox="0 0 128 128"><defs><linearGradient id="a" x1="8.221" x2="9.771" y1="20.546" y2="12.639" gradientTransform="translate(0 49.109) scale(.87671)" gradientUnits="userSpaceOnUse"><stop offset=".15" stop-color="#0052cc"/><stop offset=".503" stop-color="#0e64de"/><stop offset="1" stop-color="#2684ff"/></linearGradient><linearGradient id="b" x1="11.391" x2="9.84" y1="10.847" y2="18.754" gradientTransform="translate(0 49.109) scale(.87671)" gradientUnits="userSpaceOnUse"><stop offset=".15" stop-color="#0052cc"/><stop offset=".503" stop-color="#0e64de"/><stop offset="1" stop-color="#2684ff"/></linearGradient></defs><path fill="#253858" d="M31.465 53.148h2.484v12.32c0 3.25-1.476 5.52-4.906 5.52-1.29 0-2.297-.215-2.988-.46v-2.36c.754.305 1.668.46 2.578.46 2.11 0 2.832-1.226 2.832-3.003Zm6.984-.949c.977 0 1.668.582 1.668 1.625 0 1.012-.691 1.625-1.668 1.625-.972 0-1.668-.582-1.668-1.625 0-1.043.696-1.625 1.668-1.625Zm-1.195 5.18h2.39v13.488h-2.39Zm8.34 13.488h-2.328V57.38h2.328v2.36c.816-1.594 2.203-2.727 4.91-2.575v2.27c-3.055-.305-4.91.582-4.91 3.464Zm16.078-2.422c-.883 1.778-2.55 2.696-4.688 2.696-3.683 0-5.539-3.036-5.539-7.02 0-3.8 1.95-7.02 5.82-7.02 2.016 0 3.59.891 4.407 2.637v-2.36h2.39v13.49h-2.39Zm-4.059.52c2.14 0 4.028-1.317 4.028-4.32V63.57c0-3.004-1.73-4.324-3.778-4.324-2.672 0-4.058 1.719-4.058 4.844.03 3.281 1.351 4.875 3.808 4.875Zm15.325-2.082-1.512 3.984h-2.801l7.176-17.719h3.144l7.176 17.72h-2.8l-1.512-4.016c-1.637.335-3.051.492-4.5.492-1.414 0-2.832-.188-4.371-.461Zm8.117-2.055L77.37 55.11l-3.68 9.75c1.356.215 2.485.336 3.586.336 1.164-.03 2.364-.152 3.778-.367Zm10.414 6.129c-2.266 0-3.711-1.043-3.711-3.523V51.738h2.39v15.39c0 1.224.817 1.653 1.856 1.653.254 0 .41 0 .691-.027v2.082c-.187.062-.597.121-1.226.121Zm4.75-18.758c.976 0 1.668.582 1.668 1.625 0 1.012-.692 1.625-1.668 1.625-.973 0-1.664-.582-1.664-1.625 0-1.043.691-1.625 1.664-1.625Zm-1.227 5.18h2.39v13.488h-2.39Zm15.324 11.066c-.879 1.778-2.546 2.696-4.687 2.696-3.649 0-5.477-3.036-5.477-7.02 0-3.8 1.922-7.02 5.758-7.02 2.016 0 3.59.891 4.406 2.637v-2.36h2.329v12.263c0 3.953-1.918 6.62-6.86 6.62-2.328 0-3.586-.308-4.941-.738v-2.265c1.511.488 3.117.797 4.816.797 3.461 0 4.656-1.809 4.656-4.325Zm-4.058.52c2.14 0 4.027-1.317 4.027-4.32V63.57c0-3.004-1.73-4.324-3.777-4.324-2.672 0-4.059 1.719-4.059 4.844.031 3.281 1.356 4.875 3.809 4.875ZM128 70.867h-2.39v-8.152c0-2.426-1.008-3.496-3.274-3.496-2.203 0-3.742 1.437-3.742 4.168v7.511h-2.39V57.41h2.39v2.207c.879-1.594 2.515-2.484 4.37-2.484 3.18 0 5.005 2.148 5.005 5.855v7.88Zm0 0"/><path fill="url(#a)" d="M0 54.184c0 3.27 2.645 5.933 5.883 5.933h5.445v5.524h5.883V55.168c0-.508-.41-.953-.91-.953Zm0 0"/><path fill="url(#b)" d="M17.18 71.547c0-3.27-2.645-5.906-5.883-5.906H5.883v-5.524H0v10.477c0 .508.41.953.91.953Zm0 0"/></svg>
